svgs/light/bullhorn.svg

<svg xmlns="http://www.w3.org/2000/svg" viewBox="0 0 512 512"><!--! Font Awesome Pro 6.0.0-alpha3 by @fontawesome - https://fontawesome.com License - https://fontawesome.com/license (Commercial License) --><path d="M416 0c-7.125 0-14.19 2.375-19.97 7.031L311 75.06C268.3 109.2 214.7 128 160 128H64C28.66 128 0 156.7 0 192v96c0 35.34 28.66 64 64 64h96c54.66 0 108.3 18.81 150.1 52.94L396 472.1C400.8 476.8 409.8 480 416 480c24.91 0 32-22.78 32-32V32C448 23.25 441 0 416 0zM160 320H64c-17.64 0-32-14.36-32-32V192c0-17.64 14.36-32 32-32h96V320zM415.8 447.8L330.1 379.9C290.1 347.1 242.5 328.1 192 322.1V157.9c50.53-6.006 98.99-25.86 138.1-57.82l84.94-67.93c.0234 .0234-.0176 0 0 0c.0352 0-.0117 .0996 0 0l.1244 414.8C416 447.2 415.9 447.5 415.8 447.8zM191.7 383.5C191.4 374.7 184.3 368.2 175.2 368c-8.828 .2656-15.78 7.656-15.52 16.48c1.156 38 28.36 70.55 28.61 70.83c3.594 4.203 4.688 11.11 2.641 16.86C189.3 476.9 185.8 480 182.3 480H130.8C128.3 480 125.8 478.5 124 475.9c-1.188-1.672-29.05-41.7-27.97-91.58C96.22 375.5 89.22 368.2 80.38 368c-8.406-.25-16.16 6.828-16.34 15.66c-1.281 59.28 30.23 105.6 33.88 110.8C105.9 505.6 117.9 512 130.8 512h51.47c17.34 0 32.59-11.44 38.84-29.09c5.906-16.52 2.578-35.53-8.297-48.2C212.6 434.5 192.5 409.5 191.7 383.5zM496 192C487.2 192 480 199.2 480 208v64C480 280.8 487.2 288 496 288S512 280.8 512 272v-64C512 199.2 504.8 192 496 192z"/></svg>

<svg xmlns="http://www.w3.org/2000/svg" viewBox="0 0 512 512"><!-- Font Awesome Pro 6.0.0-alpha2 by @fontawesome - https://fontawesome.com License - https://fontawesome.com/license (Commercial License) --><path d="M416 0C408.875 0 401.812 2.375 396.031 7.031L311 75.062C268.281 109.188 214.656 128 160 128H64C28.656 128 0 156.656 0 192V288C0 323.344 28.656 352 64 352H160C214.656 352 268.281 370.812 310.969 404.938L396 472.969C400.844 476.844 409.812 480 416 480C440.906 480 448 457.219 448 448V32C448 23.25 441.031 0 416 0ZM160 320H64C46.355 320 32 305.645 32 288V192C32 174.355 46.355 160 64 160H160V320ZM415.801 447.828L330.951 379.943C290.984 347.992 242.539 328.135 192 322.129V157.869C242.531 151.863 290.986 132.008 330.992 100.049L415.865 32.145C415.889 32.168 415.91 32.18 415.928 32.18C415.963 32.18 415.986 32.139 415.998 32.039L416 32.037L416.055 446.928C416.016 447.176 415.92 447.506 415.801 447.828ZM191.703 383.516C191.438 374.672 184.266 368.156 175.219 368C166.391 368.266 159.437 375.656 159.703 384.484C160.859 422.484 188.062 455.031 188.312 455.312C191.906 459.516 193 466.422 190.953 472.172C189.297 476.859 185.797 480 182.25 480H130.781C128.328 480 125.844 478.484 124 475.922C122.812 474.25 94.953 434.219 96.031 384.344C96.219 375.516 89.219 368.188 80.375 368C71.969 367.75 64.219 374.828 64.031 383.656C62.75 442.938 94.266 489.297 97.906 494.453C105.875 505.609 117.859 512 130.781 512H182.25C199.594 512 214.844 500.562 221.094 482.906C227 466.391 223.672 447.375 212.797 434.703C212.594 434.453 192.469 409.453 191.703 383.516ZM496 192C487.164 192 480 199.162 480 208V272C480 280.836 487.164 288 496 288S512 280.836 512 272V208C512 199.162 504.836 192 496 192Z"/></svg>
